X:3504
T:Courenta dei Butei
C:La Ciapa Rusa: ten .. 2b
M:6/8
L:1/8
K:C
G|c2c cde|e2c cBc|d2d dcd|e3 c2G|\
c2c cde|e2c cBc|d2d ded|1 c3 c2:|2 c3 c3||
K:G
|:Bcd edc|Bcd d2A|ABc ded|cBA B2G|\
Bcd edc|Bcd d2A|ABc ded|1 cBA G3:|2 cBA G3 G2||


